static/cards/FrenchDeck/default/card_diamonds_05.svg

<svg width="219" height="304" viewBox="0 0 219 304" fill="none" xmlns="http://www.w3.org/2000/svg">
<g filter="url(#filter0_d_18_660)">
<g clip-path="url(#clip0_18_660)">
<rect x="8" y="4" width="203" height="288" rx="10" fill="white"/>
<path d="M16.1113 38.5547C16.1113 37.5537 16.6919 36.873 17.5728 36.873C18.2534 36.873 18.6938 37.2334 19.2144 38.2544C20.3154 40.3965 22.1572 41.5576 24.5596 41.5576C28.2031 41.5576 30.7456 38.9951 30.7456 35.3115C30.7456 31.7881 28.2832 29.3057 24.8198 29.3057C23.2583 29.3057 21.877 29.8262 20.7158 30.8672C19.2544 32.2285 18.854 32.4688 18.2134 32.4688C17.0723 32.4688 16.4917 31.5679 16.5918 30.0264L17.4727 18.8154C17.5928 17.334 18.4536 16.6333 20.1753 16.6333H31.4062C32.5674 16.6333 33.248 17.2139 33.248 18.1948C33.248 19.1558 32.5874 19.6963 31.4062 19.6963H20.6157L19.855 28.605H20.0552C20.9561 27.2637 23.2983 26.3027 25.6006 26.3027C30.6855 26.3027 34.269 29.9463 34.269 35.1313C34.269 40.6567 30.2852 44.5806 24.6997 44.5806C19.4146 44.5806 16.1113 41.3574 16.1113 38.5547Z" fill="#BC1E24"/>
<path d="M26.1801 52.104C26.1038 51.9653 25.8962 51.9653 25.8199 52.104C23.5263 56.2724 21.8722 58.4782 18.5553 61.8648C18.4816 61.9401 18.4816 62.0599 18.5553 62.1352C21.8722 65.5218 23.5263 67.7276 25.8199 71.896C25.8962 72.0347 26.1038 72.0347 26.1801 71.896C28.4737 67.7276 30.1278 65.5218 33.4447 62.1352C33.5184 62.0599 33.5184 61.9401 33.4447 61.8648C30.1278 58.4782 28.4737 56.2724 26.1801 52.104Z" fill="#BC1E24"/>
<path d="M202.889 257.445C202.889 258.446 202.308 259.127 201.427 259.127C200.747 259.127 200.306 258.767 199.786 257.746C198.685 255.604 196.843 254.442 194.44 254.442C190.797 254.442 188.254 257.005 188.254 260.688C188.254 264.212 190.717 266.694 194.18 266.694C195.742 266.694 197.123 266.174 198.284 265.133C199.746 263.771 200.146 263.531 200.787 263.531C201.928 263.531 202.508 264.432 202.408 265.974L201.527 277.185C201.407 278.666 200.546 279.367 198.825 279.367L187.594 279.367C186.433 279.367 185.752 278.786 185.752 277.805C185.752 276.844 186.413 276.304 187.594 276.304L198.384 276.304L199.145 267.395L198.945 267.395C198.044 268.736 195.702 269.697 193.399 269.697C188.314 269.697 184.731 266.054 184.731 260.869C184.731 255.343 188.715 251.419 194.3 251.419C199.585 251.419 202.889 254.643 202.889 257.445Z" fill="#BC1E24"/>
<path d="M192.82 243.896C192.896 244.035 193.104 244.035 193.18 243.896C195.474 239.728 197.128 237.522 200.445 234.135C200.518 234.06 200.518 233.94 200.445 233.865C197.128 230.478 195.474 228.272 193.18 224.104C193.104 223.965 192.896 223.965 192.82 224.104C190.526 228.272 188.872 230.478 185.555 233.865C185.482 233.94 185.482 234.06 185.555 234.135C188.872 237.522 190.526 239.728 192.82 243.896Z" fill="#BC1E24"/>
<path d="M65.9501 27.2599C65.7594 26.9134 65.2406 26.9134 65.0499 27.2599C59.3158 37.6809 55.1805 43.1955 46.8882 51.6621C46.7039 51.8503 46.7039 52.1498 46.8882 52.338C55.1805 60.8045 59.3158 66.3191 65.0499 76.7401C65.2406 77.0866 65.7594 77.0866 65.9501 76.7401C71.6842 66.3191 75.8195 60.8045 84.1118 52.338C84.2961 52.1498 84.2961 51.8503 84.1118 51.6621C75.8195 43.1955 71.6842 37.6809 65.9501 27.2599Z" fill="#BC1E24"/>
<path d="M65.9501 219.26C65.7594 218.913 65.2406 218.913 65.0499 219.26C59.3158 229.681 55.1805 235.196 46.8882 243.662C46.7039 243.85 46.7039 244.15 46.8882 244.338C55.1805 252.804 59.3158 258.319 65.0499 268.74C65.2406 269.087 65.7594 269.087 65.9501 268.74C71.6842 258.319 75.8195 252.804 84.1118 244.338C84.2961 244.15 84.2961 243.85 84.1118 243.662C75.8195 235.196 71.6842 229.681 65.9501 219.26Z" fill="#BC1E24"/>
<path d="M153.95 27.2599C153.759 26.9134 153.241 26.9134 153.05 27.2599C147.316 37.6809 143.181 43.1955 134.888 51.6621C134.704 51.8503 134.704 52.1498 134.888 52.338C143.181 60.8045 147.316 66.3191 153.05 76.7401C153.241 77.0866 153.759 77.0866 153.95 76.7401C159.684 66.3191 163.819 60.8045 172.112 52.338C172.296 52.1498 172.296 51.8503 172.112 51.6621C163.819 43.1955 159.684 37.6809 153.95 27.2599Z" fill="#BC1E24"/>
<path d="M109.95 123.26C109.759 122.913 109.241 122.913 109.05 123.26C103.316 133.681 99.1805 139.196 90.8882 147.662C90.7039 147.85 90.7039 148.15 90.8882 148.338C99.1805 156.804 103.316 162.319 109.05 172.74C109.241 173.087 109.759 173.087 109.95 172.74C115.684 162.319 119.819 156.804 128.112 148.338C128.296 148.15 128.296 147.85 128.112 147.662C119.819 139.196 115.684 133.681 109.95 123.26Z" fill="#BC1E24"/>
<path d="M153.95 219.26C153.759 218.913 153.241 218.913 153.05 219.26C147.316 229.681 143.181 235.196 134.888 243.662C134.704 243.85 134.704 244.15 134.888 244.338C143.181 252.804 147.316 258.319 153.05 268.74C153.241 269.087 153.759 269.087 153.95 268.74C159.684 258.319 163.819 252.804 172.112 244.338C172.296 244.15 172.296 243.85 172.112 243.662C163.819 235.196 159.684 229.681 153.95 219.26Z" fill="#BC1E24"/>
</g>
</g>
<defs>
<filter id="filter0_d_18_660" x="0" y="0" width="219" height="304" filterUnits="userSpaceOnUse" color-interpolation-filters="sRGB">
<feFlood flood-opacity="0" result="BackgroundImageFix"/>
<feColorMatrix in="SourceAlpha" type="matrix" values="0 0 0 0 0 0 0 0 0 0 0 0 0 0 0 0 0 0 127 0" result="hardAlpha"/>
<feOffset dy="4"/>
<feGaussianBlur stdDeviation="4"/>
<feComposite in2="hardAlpha" operator="out"/>
<feColorMatrix type="matrix" values="0 0 0 0 0.614771 0 0 0 0 0.70094 0 0 0 0 0.806257 0 0 0 1 0"/>
<feBlend mode="normal" in2="BackgroundImageFix" result="effect1_dropShadow_18_660"/>
<feBlend mode="normal" in="SourceGraphic" in2="effect1_dropShadow_18_660" result="shape"/>
</filter>
<clipPath id="clip0_18_660">
<rect x="8" y="4" width="203" height="288" rx="10" fill="white"/>
</clipPath>
</defs>
</svg>

<svg xmlns="http://www.w3.org/2000/svg" width="219" height="304" fill="none" viewBox="0 0 219 304"><g filter="url(#a)"><g clip-path="url(#b)"><rect width="203" height="288" x="8" y="4" fill="#fff" rx="10"/><path fill="#bc1e24" d="M16.111 38.555c0-1.001.58-1.682 1.462-1.682.68 0 1.12.36 1.641 1.381 1.101 2.143 2.943 3.304 5.346 3.304 3.643 0 6.186-2.563 6.186-6.246 0-3.524-2.463-6.006-5.926-6.006-1.562 0-2.943.52-4.104 1.561-1.462 1.361-1.862 1.602-2.503 1.602-1.14 0-1.721-.901-1.621-2.443l.88-11.21c.12-1.482.982-2.183 2.703-2.183h11.231c1.161 0 1.842.58 1.842 1.562 0 .96-.66 1.501-1.842 1.501h-10.79l-.761 8.909h.2c.901-1.341 3.243-2.302 5.546-2.302 5.085 0 8.668 3.643 8.668 8.828 0 5.526-3.984 9.45-9.57 9.45-5.284 0-8.588-3.224-8.588-6.026M26.18 52.104a.208.208 0 0 0-.36 0c-2.294 4.168-3.948 6.374-7.265 9.76a.193.193 0 0 0 0 .271c3.317 3.387 4.971 5.593 7.265 9.761a.208.208 0 0 0 .36 0c2.294-4.168 3.948-6.374 7.265-9.76a.193.193 0 0 0 0-.271c-3.317-3.387-4.971-5.593-7.265-9.761M202.889 257.445c0 1.001-.581 1.682-1.462 1.682-.68 0-1.121-.36-1.641-1.381-1.101-2.142-2.943-3.304-5.346-3.304-3.643 0-6.186 2.563-6.186 6.246 0 3.524 2.463 6.006 5.926 6.006 1.562 0 2.943-.52 4.104-1.561 1.462-1.362 1.862-1.602 2.503-1.602 1.141 0 1.721.901 1.621 2.443l-.881 11.211c-.12 1.481-.981 2.182-2.702 2.182h-11.231c-1.161 0-1.842-.581-1.842-1.562 0-.961.661-1.501 1.842-1.501h10.79l.761-8.909h-.2c-.901 1.341-3.243 2.302-5.546 2.302-5.085 0-8.668-3.643-8.668-8.828 0-5.526 3.984-9.45 9.569-9.45 5.285 0 8.589 3.224 8.589 6.026M192.82 243.896a.208.208 0 0 0 .36 0c2.294-4.168 3.948-6.374 7.265-9.761a.194.194 0 0 0 0-.27c-3.317-3.387-4.971-5.593-7.265-9.761a.208.208 0 0 0-.36 0c-2.294 4.168-3.948 6.374-7.265 9.761a.194.194 0 0 0 0 .27c3.317 3.387 4.971 5.593 7.265 9.761M65.95 27.26a.52.52 0 0 0-.9 0c-5.734 10.42-9.87 15.936-18.162 24.402a.48.48 0 0 0 0 .676c8.293 8.466 12.428 13.981 18.162 24.402a.52.52 0 0 0 .9 0c5.734-10.42 9.87-15.935 18.162-24.402a.48.48 0 0 0 0-.676C75.82 43.196 71.684 37.681 65.95 27.26M65.95 219.26a.52.52 0 0 0-.9 0c-5.734 10.421-9.87 15.936-18.162 24.402a.48.48 0 0 0 0 .676c8.293 8.466 12.428 13.981 18.162 24.402a.52.52 0 0 0 .9 0c5.734-10.421 9.87-15.936 18.162-24.402a.48.48 0 0 0 0-.676c-8.292-8.466-12.428-13.981-18.162-24.402M153.95 27.26a.52.52 0 0 0-.9 0c-5.734 10.42-9.869 15.936-18.162 24.402a.483.483 0 0 0 0 .676c8.293 8.466 12.428 13.981 18.162 24.402a.52.52 0 0 0 .9 0c5.734-10.42 9.869-15.935 18.162-24.402a.483.483 0 0 0 0-.676c-8.293-8.466-12.428-13.981-18.162-24.402M109.95 123.26a.52.52 0 0 0-.9 0c-5.734 10.421-9.87 15.936-18.162 24.402a.48.48 0 0 0 0 .676c8.292 8.466 12.428 13.981 18.162 24.402a.52.52 0 0 0 .9 0c5.734-10.421 9.869-15.936 18.162-24.402a.483.483 0 0 0 0-.676c-8.293-8.466-12.428-13.981-18.162-24.402M153.95 219.26a.52.52 0 0 0-.9 0c-5.734 10.421-9.869 15.936-18.162 24.402a.483.483 0 0 0 0 .676c8.293 8.466 12.428 13.981 18.162 24.402a.52.52 0 0 0 .9 0c5.734-10.421 9.869-15.936 18.162-24.402a.483.483 0 0 0 0-.676c-8.293-8.466-12.428-13.981-18.162-24.402"/></g></g><defs><clipPath id="b"><rect width="203" height="288" x="8" y="4" fill="#fff" rx="10"/></clipPath><filter id="a" width="219" height="304" x="0" y="0" color-interpolation-filters="sRGB" filterUnits="userSpaceOnUse"><feFlood flood-opacity="0" result="BackgroundImageFix"/><feColorMatrix in="SourceAlpha" result="hardAlpha" values="0 0 0 0 0 0 0 0 0 0 0 0 0 0 0 0 0 0 127 0"/><feOffset dy="4"/><feGaussianBlur stdDeviation="4"/><feComposite in2="hardAlpha" operator="out"/><feColorMatrix values="0 0 0 0 0.614771 0 0 0 0 0.70094 0 0 0 0 0.806257 0 0 0 1 0"/><feBlend in2="BackgroundImageFix" result="effect1_dropShadow_18_660"/><feBlend in="SourceGraphic" in2="effect1_dropShadow_18_660" result="shape"/></filter></defs></svg>
